svg/fluentui-system-icons/ic_fluent_arrow_minimize_24_regular.svg

<svg width="24" height="24" viewBox="0 0 24 24" fill="none" xmlns="http://www.w3.org/2000/svg">
<path d="M21.7776 2.22156C22.0437 2.4878 22.0679 2.90446 21.8503 3.19809L21.7778 3.28222L15.555 9.50595L21.2476 9.5069C21.6273 9.5069 21.9411 9.78906 21.9908 10.1551L21.9976 10.2569C21.9976 10.6366 21.7155 10.9504 21.3494 11.0001L21.2476 11.0069L13.6973 11.0045L13.6824 11.0033C13.6141 10.9981 13.5486 10.9835 13.487 10.9609L13.3892 10.9154C13.1842 10.8053 13.037 10.6018 13.0034 10.3618L12.9961 10.2569V2.75301C12.9961 2.3388 13.3319 2.00301 13.7461 2.00301C14.1258 2.00301 14.4396 2.28516 14.4893 2.65124L14.4961 2.75301L14.496 8.44395L20.7178 2.22169C21.0104 1.92876 21.4849 1.9287 21.7776 2.22156ZM11.0025 13.7543V21.2581C11.0025 21.6724 10.6667 22.0081 10.2525 22.0081C9.8728 22.0081 9.55901 21.726 9.50935 21.3599L9.5025 21.2581L9.502 15.563L3.28039 21.7789C2.98753 22.0718 2.51266 22.0719 2.21973 21.779C1.95343 21.5128 1.92918 21.0961 2.147 20.8025L2.21961 20.7184L8.44 14.504L2.75097 14.5043C2.37128 14.5043 2.05748 14.2221 2.00782 13.856L2.00097 13.7543C2.00097 13.34 2.33676 13.0043 2.75097 13.0043L10.3053 13.0061L10.3788 13.0149L10.4763 13.0382L10.5291 13.0569L10.6154 13.0977L10.7039 13.1552C10.7598 13.1974 10.8095 13.2472 10.8517 13.3031L10.9185 13.409L10.9592 13.5025L10.9806 13.5734L10.9919 13.6281L10.998 13.686L10.9986 13.6775L11.0025 13.7543Z" fill="#212121"/>
</svg>

<svg xmlns="http://www.w3.org/2000/svg" width="24" height="24"><path d="M21.778 2.222a.75.75 0 0 1 .072.976l-.072.084-6.223 6.224h5.693a.75.75 0 0 1 .743.65l.007.1a.75.75 0 0 1-.649.744l-.101.007-7.55-.002-.016-.002a.727.727 0 0 1-.195-.042l-.098-.046a.747.747 0 0 1-.386-.553l-.007-.105V2.753a.75.75 0 0 1 1.493-.102l.007.102v5.69l6.222-6.221a.749.749 0 0 1 1.06 0ZM11.003 13.754v7.504a.75.75 0 0 1-1.494.102l-.007-.102v-5.695L3.28 21.779a.75.75 0 0 1-1.133-.977l.073-.084 6.22-6.214H2.751a.75.75 0 0 1-.743-.648L2 13.754a.75.75 0 0 1 .75-.75l7.554.002.074.009.097.023.053.019.086.04.089.058a.756.756 0 0 1 .148.148l.066.106.041.093.022.071.01.055.007.058v-.008l.005.076Z"/></svg>
